X:1
T:Title
%%score { 1 | ( 2 3 ) }
L:1/8
Q:1/4=110
M:4/4
K:Ab
V:1 treble nm="Grand Piano"
V:2 bass 
V:3 bass 
V:1
 E2 A2 A2 A2 | A4 G2 z2 | E4 B2 B2 | B4 A2 z2 | E2 c2 c2 c2 | [Fc]4 [FB]2 z2 | A2 G2 F2 G2 | %7
w: Florence~W.~Williams * * *|||||||
 [CA]6 z2 |] %8
w: |
V:2
 [A,C]2 [A,CE]2 [A,CE]2 [A,CE]2 | [B,DE]4 [B,DE]2 z2 | [E,G,D]4 [G,DE]2 [F,DE]2 | D4 z4 | %4
 [A,C]2 [A,EA]2 [A,EG]2 [A,E_G]2 | [D,D]4 [D,D]2 z2 | [CE]2 z2 z4 | [A,,E,A,]6 z2 |] %8
V:3
 x8 | x8 | x8 | [A,E]4- [A,CE]2 z2 | x8 | x8 | E,2- [E,B,D]2 [E,A,D]2 [E,B,D]2 | x8 |] %8

